X: 64
T: Maicai
%%abc-version 2.0
%%abcx-abcm2ps-target-version 5.9.1 (29 Sep 2008)
%%abc-creator hum2abc beta
%%abcx-conversion-date 2013/10/02 07:52:29
%%abc-edited-by Helmut Schaffrath
%%humdrum-veritas 4065248063
%%humdrum-veritas-data 1492459477
%%continueall 1
%%barnumbers 0
L: 1/16
M: 3/4
K: F
d2 d f d2 c d [I:setbarnb 1]| 
f2 d Ac8 | 
[M:2/4]d2 d c A2 A c | 
[M:3/4]d f c AG8 | 
[M:2/4]G2 G F G2 G A | 
c2 c A2< c2 d | 
F G E DC4 | 
d2 d c2< A2 c | 
G2 F D F G A D | 
C8 |]  



